!!!Genre:	Volekh
!!!Mode:	Major
!!!Listening/dance:	dance
!!!:	*g:dor
!!!One_Mode:	no
**kern
*I"P1
*clefG2
*k[f#]
*g:dor
=18:|!|:
*>C
8ddL
8cc#X
(8qee/
8dd)
8cc#J
12ddL
12cc#
12b-XJ
=19
8cc#XL
8dd
8ee
(8qgg/
8ffnJ)
4dd
=20
8ddL
8cc#X
8dd
8cc#J
12ddL
12cc#
12b-XJ
=21
8ddL
8cc#X
8b-X
8aJ
4g
=22
8ddL
8cc#X
8dd
8cc#J
(8qee/
12ddL)
12cc#
12b-XJ
=23
8cc#XL
8dd
8eeJ
(8qgg/
8ffnJ)
4dd
=24
(8qcc#X/
2.dd)
=25
(8qff#/
2.gg)
*>eM
=:|!
*-
